X:5010
T:Armenaki Eimai Kyra Mou
M:2/4
L:1/16
Q:
R:
S:From a Greek bouzouki book . . .
K:C
|"Dm"dcBA Bcd2|defe fed2|dcBA Bcd2|defe fed2|
|"Dm"dcBA "C"c_BAG|"F"FGA_B AGGF|"Dm"D_EFG "Cm"FG_ED| "Dm"D3c "C"efgf| 
|"C"g3c efgf|g3c efgf|g_agf feed|"Dm"d2gf feed|
|"Dm"d2c_B AGF_E|D3_E DCD2|"Gm"g3g g2 g2|"Dm"a2f2 _e2d2|
|"Cm"g3f _ef_e2| "Dm"d8 | "Gm"g3f _ef_e2|"Dm"dcde fgeg|
|"F"(f8|f8)|f2f2 "Cm"_ef_ed| "Dm"d8||
